X:1
T:St. Lawrence, LM
T:St. Lawrence, LM
T:Leighton George Hayne, 1863
T:Public Domain Courtesy of the Cyber Hymnal™
C:Leighton George Hayne, 1863
Z:Public Domain
Z:Courtesy of the Cyber Hymnal™
%%score ( 1 2 ) ( 3 4 )
L:1/8
Q:1/4=110
M:4/4
K:Ab
V:1 treble 
V:2 treble 
V:3 bass 
V:4 bass 
V:1
 [Ec]2 | [Ec]2 [DB]2 [CA]2 [EG]2 | [EG]2 [DF]2 E2 E2 | E2 [A,e]2 [Fd]2 [Ec]2 | %4
 [=DB]2 [DA]2 !fermata![EG]2 [=Ec]2 | [=Ec]2 B2 [CA]2 [_DF]2 | [Dd]2 [Ec]2 [EB]2 [Ae]2 | %7
 [Dd]2 [Fc]2 [FB]2 [Dd]2 | [Ec]2 [DB]2 !fermata![CA]2 |] %9
V:2
 x2 | x8 | x4 E2 (ED) | (CB,) x6 | x8 | x2 (=DC) x4 | x8 | x8 | x6 |] %9
V:3
 [A,,A,]2 | (A,E,) (F,G,) [A,,A,]2 [C,E,]2 | (D,E,) (F,G,) [C,A,]2 [B,,G,]2 | %3
 [A,,A,]2 [C,A,]2 [D,A,]2 [E,A,]2 | [F,A,]2 [B,,B,]2 !fermata![E,B,]2 [C,C]2 | %5
 (CG,) ([=D,F,][=E,G,]) [F,A,]2 [_D,A,]2 | (B,F,) ([C,E,][D,F,]) [E,G,]2 [C,A,]2 | %7
 [F,A,]2 [E,=A,]2 [D,B,]2 [B,,F,]2 | [E,A,]2 [E,G,]2 !fermata![A,,A,]2 |] %9
V:4
 x2 | A,,2 A,,2 x4 | D,2 D,2 x4 | x8 | x8 | C,2 x6 | B,,2 x6 | x8 | x6 |] %9

